src/assets/img/MasterCard.svg

<svg width="24" height="24" viewBox="0 0 24 24" fill="none" xmlns="http://www.w3.org/2000/svg">
<path d="M0 12C0 5.37258 5.37258 0 12 0C18.6274 0 24 5.37258 24 12C24 18.6274 18.6274 24 12 24C5.37258 24 0 18.6274 0 12Z" fill="white"/>
<path d="M13.6225 9.08953H10.3777V14.9206H13.6225V9.08953Z" fill="#FF5F00"/>
<path d="M10.5837 12.0053C10.5832 11.4437 10.7104 10.8894 10.9558 10.3842C11.2012 9.87912 11.5583 9.43644 12.0001 9.08973C11.453 8.65973 10.796 8.39231 10.1041 8.31805C9.41229 8.2438 8.71349 8.36569 8.08764 8.66981C7.46178 8.97392 6.93411 9.44798 6.56494 10.0378C6.19577 10.6276 6 11.3094 6 12.0053C6 12.7011 6.19577 13.3829 6.56494 13.9727C6.93411 14.5626 7.46178 15.0366 8.08764 15.3407C8.71349 15.6448 9.41229 15.7667 10.1041 15.6925C10.796 15.6182 11.453 15.3508 12.0001 14.9208C11.5583 14.5741 11.2012 14.1314 10.9558 13.6263C10.7104 13.1212 10.5832 12.5668 10.5837 12.0053Z" fill="#EB001B"/>
<path d="M18 12.0053C18 12.7011 17.8043 13.3829 17.4351 13.9727C17.066 14.5625 16.5383 15.0366 15.9125 15.3407C15.2866 15.6448 14.5879 15.7667 13.896 15.6925C13.2042 15.6182 12.5471 15.3508 12.0001 14.9208C12.4415 14.5737 12.7983 14.131 13.0437 13.626C13.289 13.1209 13.4165 12.5668 13.4165 12.0053C13.4165 11.4438 13.289 10.8896 13.0437 10.3846C12.7983 9.87954 12.4415 9.43679 12.0001 9.08973C12.5471 8.65972 13.2042 8.39231 13.896 8.31805C14.5879 8.2438 15.2866 8.36569 15.9125 8.66981C16.5383 8.97393 17.066 9.448 17.4351 10.0378C17.8043 10.6277 18 11.3094 18 12.0053Z" fill="#F79E1B"/>
<path d="M17.6462 14.3031V14.1837H17.6944V14.1594H17.5718V14.1837H17.6199V14.3031H17.6462ZM17.8842 14.3031V14.1591H17.8466L17.8034 14.2582L17.7602 14.1591H17.7226V14.3031H17.7491V14.1945L17.7897 14.2881H17.8172L17.8577 14.1943V14.3031H17.8842Z" fill="#F79E1B"/>
</svg>

<svg xmlns="http://www.w3.org/2000/svg" width="24" height="24" fill="none"><path fill="#fff" d="M0 12C0 5.373 5.373 0 12 0s12 5.373 12 12-5.373 12-12 12S0 18.627 0 12Z"/><path fill="#FF5F00" d="M13.623 9.09h-3.245v5.83h3.245V9.09Z"/><path fill="#EB001B" d="M10.584 12.005A3.702 3.702 0 0 1 12 9.09a3.709 3.709 0 1 0 0 5.83 3.702 3.702 0 0 1-1.416-2.915Z"/><path fill="#F79E1B" d="M18 12.005a3.708 3.708 0 0 1-6 2.916 3.71 3.71 0 0 0 0-5.831 3.708 3.708 0 0 1 6 2.915ZM17.646 14.303v-.12h.048v-.024h-.122v.025h.048v.12h.026Zm.238 0v-.144h-.037l-.044.1-.043-.1h-.037v.144h.026v-.109l.04.094h.028l.04-.094v.11h.027Z"/></svg>
